X: 14
T: Dunmore Lasses, The
Z: Em G
S: https://thesession.org/tunes/462#setting51497
R: reel
M: 4/4
L: 1/8
K: Emin
|:E2 EF GFGA|Beed Beed|E2 EF G2 BG|A2 BA GEED|
EDEF GFGA|Beed e2 ef|ge fd edBG|AcBA GEED:|
|:g2 eg fedA|Beed Beef|gfeg fedB|AcBA GE E2|
g2 eg fedA|Beed e2 ef|ge fd edBG|AcBA GE E2:|

